X:1
T:The Christian Mariner
T:The Christian Mariner
T:John Robson Sweney
T:A. W. Blakesley, 1881
T:Public Domain Courtesy of the Cyber Hymnal™
T:Public Domain Courtesy of the Cyber Hymnal™
C:John Robson Sweney
Z:Public Domain
Z:Courtesy of the Cyber Hymnal™
%%score ( 1 2 ) 3
L:1/8
Q:1/4=95
M:4/4
K:G
V:1 treble 
V:2 treble 
V:3 bass 
V:1
 D[DG] | [GB]2 [GB][GB] [GB]2 [DA][DG] | [CE]2 [EG][EG] [EG]2 [DF][CE] | %3
w: 1.~Both by|day and by night, Both in|dark- ness and light, Must the|
w: 2.~Is not|Christ on the deep? Is He|not in the ship? Says He|
w: 3.~With our|Je- sus thus near, Let us|ban- ish each fear, Tho’ earth’s|
w: 4.~Soon the|prize will be won, And life’s|voyage will be done, And with|
 [B,D]2 [DG][GB] [Gd]2 [EG][EG] | [FA]6 [GB][Ac] | [Bd]2 [DG][GB] [FA]2 [FA][GB] | %6
w: mar- i- ner keep on his|way; By his|com- pass must steer, Mid all|
w: not, “Do not fear, it is|I”? At His|word storm and tide Shall in|
w: hopes round us blast- ed may|lie; Tho’ the|storm down may pour, And loud|
w: Je- sus’ own flock we shall|reign; By life’s|wa- ters be led, In its|
 [Ac]2 [DF][DA] [DG]2 DD | [CE]2 [Ec][Ec] [DB]2 [DA][DA] | [DG]6 ||"^Refrain" [GB][Ac] | %10
w: dan- ger and fear, Till the|dark- ness and storms pass a-|way.||
w: si- lence sub- side, And each|child safe- ly land- ed on|high.|Then we’ll|
w: thun- ders may roar, And the|sur- ges may dash to the|sky.||
w: green pas- tures fed, And we’ll|rest in our heav- en- ly|home.||
 [Bd]6 [^A^c][Bd] | [GB]6 [FA][GB] | [Fc]2 [Fd][Fe] [Fd]2 [FA][Fc] | [GB]6 [GB][Ac] | %14
w: ||||
w: sing, then we’ll|sing, Tho’ the|storm mad- ly round us may|roar; When we|
w: ||||
w: ||||
 [Bd]2 [DG][GB] [FA]2 [FA][GB] | [Ac]2 [DF][DA] [DG]2 DD | [CE]2 [Ec][Ec] [DB]2 [DA][DA] | [DG]6 |] %18
w: ||||
w: an- chor a- bove, We will|meet those we love, On that|beau- ti- ful, beau- ti- ful|shore.|
w: ||||
w: ||||
V:2
 D x | x8 | x8 | x8 | x8 | x8 | x6 DD | x8 | x6 || x2 | x8 | x8 | x8 | x8 | x8 | x6 DD | x8 | x6 |] %18
V:3
 [G,B,][G,B,] | [G,D]2 [G,D][G,D] [G,D]2 [G,C][G,B,] | [C,C]2 [C,C][C,C] [C,C]2 [C,G,][C,G,] | %3
w: |||
 [G,,G,]2 [G,B,][G,D] [G,B,]2 [A,^C][A,C] | [D,D]6 [G,D][G,D] | %5
w: ||
 [G,D]2 [G,B,][G,D] [D,D]2 [D,D][D,D] | [D,D]2 [D,A,][D,C] [G,B,]2 [B,,G,][B,,G,] | %7
w: ||
 [C,G,]2 [C,G,][C,G,] [D,G,]2 [D,C][D,C] | [G,,G,B,]6 || z2 | z2 [G,B,][A,C] [B,D]2 z2 | %11
w: |||Then we’ll sing,|
 z2 [^A,^C][B,D] [G,B,]2 [=CD][B,D] | [A,D]2 [D,A,][D,A,] [D,A,]2 [D,D][D,D] | %13
w: then we’ll sing, * *||
 [G,D]2 [G,D][G,D] [G,D]2 [G,D][G,D] | [G,D]2 [G,B,][G,D] [D,D]2 [D,D][D,D] | %15
w: * * mad- ly roar. *||
 [D,D]2 [D,A,][D,C] [G,B,]2 [B,,G,][B,,G,] | [C,G,]2 [C,G,][C,G,] [D,G,]2 [D,C][D,C] | %17
w: ||
 [G,,G,B,]6 |] %18
w: |

